X: 201667
T: Throw the Beetle at Her!
T: Caith an tSlis L\'ei!
S: B.Breathnach:"Ceol Rince na hEireann" IV/43 
Z: B.Black
L: 1/8
M: 9/8
R: slipjig
K: G
B2E EDE c2A|B2E E2G FED|B2E EDE c2A|ABc dAG FED :|
G2B BAB BAB|G2B BAB AFD|G2B BAB BAB|ABc dAG FED|
G2B BAB BAB|G2B BAB AFD|G2B BAB BAB|ABc dAG FGA ||
